X:1
T:Arise and sing, dispel your fears
T:1/2
T:Arise and sing, dispel your fears (Almond Woolf)
C:Almond Woolf
Z:Carol no. 12 from p19 of
Z:Cornish Carols, Part I,
Z:ed. R. H. Heath, Truro: (1889)
%%score [ 1 2 3 4 ]
L:1/8
M:4/4
K:F
V:1 treble nm="SOPRANO" snm="S."
V:2 treble nm="ALTO" snm="A."
V:3 treble-8 transpose=-12 nm="TENOR" snm="T."
V:4 bass nm="BASS" snm="B."
V:1
 c4 F2 G2 | (A2 B2 c2) d2 | c4 c4 | c6 f2 | (efed cd)(cB) | (AGAB c2) d2 | c4 =B4 | c6 z2 | %8
w: Lo, the bright|sun _ _ of|right- eous-|ness, lo,|the _ _ _ _ _ bright _|sun _ _ _ _ of|right- eous-|ness|
w: A- rise and|sing, _ _ dis-|pel your|fears, a-|rise _ _ _ _ _ and _|sing, _ _ _ _ dis-|pel your|fears,|
w: See from the|high- * * est|realms of|bliss, see|from _ _ _ _ _ the _|high- * * * * est|realms of|bliss,|
 z2 c2 F2 G2 | (A2 G2 F2) G2 | F4 E4 | F8 | c4 c2 c2 | c6 A2 | (BABc dc)(de) | (f4 e2) c2 | %16
w: Ap- pears the|de- * * sert|world to|bless:|May ev- ’ry|soul their|tri- * * * * * bute _|bring, _ And|
w: Ti- dings of|joy _ _ sa-|lute your|ears,|And heav’n pours|forth its|sa- * * * * * cred _|light _ To|
w: An- gels des-|cend _ _ to|pub- lish|peace;|Wrapt in the|glor- ious|theme, _ _ _ _ _ the _|plains _ Re-|
 f2 (ed) c2 B2 | (A2 cB AB)(AG) | F2 G2 A2 B2 | c6 d2 | c4 c4 | A6 c2 | (f2 ed c2) B2 | %23
w: worlds un- * born his|glo- * * * * ry _|sing, and worlds un-|born his|glo- ry|sing, and|worlds _ _ _ un-|
w: dis- si- * pate the|gloom _ _ _ _ of _|night, to dis- si-|pate the|gloom of|night, to|dis- * * * si-|
w: sound in _ their me-|lo- * * * * dious _|strains, re- sound in|their me-|lo- dious|strains, re-|sound _ _ _ in|
 (A2 B2 c2) B2 | A4 G4 | F8 |] %26
w: born _ _ his|glo- ry|sing.|
w: pate _ _ the|gloom of|night.|
w: their _ _ me-|lo- dious|strains.|
V:2
 F4 F2 E2 | (F2 E2 F2) F2 | F4 E4 | F6 z2 | z2 C2 C2 E2 | (F2 E2 F2) A2 | G4 G4 | G6 F2 | %8
w: Lo, the bright|sun _ _ of|right- eous-|ness,|lo, the bright|sun _ _ of|right- eous-|ness Ap-|
w: A- rise and|sing, _ _ dis-|pel your|fears,|a- rise and|sing, _ _ dis-|pel your|fears, Ti-|
w: See from the|high- * * est|realms of|bliss,|see from the|high- * * est|realms of|bliss, An-|
 (EFED CD)(CB,) | (A,2 C4) D2 | C4 C4 | C8 | F4 F2 C2 | F6 F2 | F6 B2 | (A4 G2) z2 | z4 z2 C2 | %17
w: pears _ _ _ _ _ the _|de- * sert|world to|bless:|May ev- ’ry|soul their|tri- bute|bring, _|And|
w: dings _ _ _ _ _ of _|joy _ sa-|lute your|ears,|And heav’n pours|forth its|sa- cred|light _|To|
w: gels _ _ _ _ _ des- *|cend _ to|pub- lish|peace;|Wrapt in the|glor- ious|theme, the|plains _|Re-|
 F2 (ED) C2 (DE) | F2 C2 A,2 C2 | C2 E2 F2 B2 | G4 (F2 E2) | F6 A2 | A6 E2 | (F2 ED C2) F2 | %24
w: worlds un- * born his _|glo- ry sing, and|worlds un- born his|glo- ry _|sing, and|worlds un-|born _ _ _ his|
w: dis- si- * pate the _|gloom of night, to|dis- si- pate the|gloom of _|night, to|dis- si-|pate _ _ _ the|
w: sound in _ their me- *|lo- dious strains, re-|sound in their me-|lo- dious _|strains, re-|sound in|their _ _ _ me-|
 F4 E4 | F8 |] %26
w: glo- ry|sing.|
w: gloom of|night.|
w: lo- dious|strains.|
V:3
 A4 c2 c2 | (c4 A2) B2 | A4 G4 | A6 d2 | (cdcB AB)(AG) | F2 c2 c2 f2 | e4 d4 | e6 z2 | z4 z2 c2 | %9
w: Lo, the bright|sun _ of|right- eous-|ness, lo,|the _ _ _ _ _ bright _|sun, bright sun of|right- eous-|ness|Ap-|
w: A- rise and|sing, _ dis-|pel your|fears, a-|rise _ _ _ _ _ and _|sing, and sing, dis-|pel your|fears,|Ti-|
w: See from the|high- * est|realms of|bliss, see|from _ _ _ _ _ the _|high- est, high- est|realms of|bliss,|An-|
 c2 B2 A2 B2 | A4 G4 | A8 | A4 A2 G2 | (A3 B c2) c2 | (d4 B2) c2 | c6 z2 | z8 | z8 | z4 z2 G2 | %19
w: pears the de- sert|world to|bless:|May ev- ’ry|soul _ _ their|tri- * bute|bring,|||And|
w: dings of joy sa-|lute your|ears,|And heav’n pours|forth _ _ its|sa- * cred|light|||To|
w: gels des- cend to|pub- lish|peace;|Wrapt in the|glor- * * ious|theme, _ the|plains|||Re-|
 A2 c2 c2 f2 | e4 (f2 c2) | c6 c2 | c6 c2 | (c2 B2 A2) d2 | c4 c4 | A8 |] %26
w: worlds un- born his|glo- ry _|sing, and|worlds un-|born _ _ his|glo- ry|sing.|
w: dis- si- pate the|gloom of _|night, to|dis- si-|pate _ _ the|gloom of|night.|
w: sound in their me-|lo- dious _|strains, re-|sound in|their _ _ me-|lo- dious|strains.|
V:4
 F,4 A,2 B,2 | (A,2 G,2 F,2) B,,2 | C,4 C,4 | F,6 z2 | z4 z2 C,2 | F,2 G,2 A,2 D,2 | G,4 G,4 | %7
w: Lo, the bright|sun _ _ of|right- eous-|ness,|lo,|the bright sun of|right- eous-|
w: A- rise and|sing, _ _ dis-|pel your|fears,|a-|rise and sing, dis-|pel your|
w: See from the|high- * * est|realms of|bliss,|see|from the high- est|realms of|
 C,6 D2 | (CDCB, A,B,)(A,G,) | F,6 B,,2 | C,4 C,4 | F,8 | z2 C,2 D,2 E,2 | (F,3 G, A,2) F,2 | %14
w: ness Ap-|pears _ _ _ _ _ the _|de- sert|world to|bless:|May ev- ’ry|soul _ _ their|
w: fears, Ti-|dings _ _ _ _ _ of _|joy sa-|lute your|ears,|And heav’n pours|forth _ _ its|
w: bliss, An-|gels _ _ _ _ _ des- *|cend to|pub- lish|peace;|Wrapt in the|glor- * * ious|
 B,6 G,2 | (F,4 C,2) z2 | z8 | z4 z2 C,2 | %18
w: tri- bute|bring, _||And|
w: sa- cred|light _||To|
w: theme, the|plains _||Re-|
"^Notes:This carol is given in short score in R. H. Heath’s Cornish Carols, Part I, attributed to ‘A. Woolf’.In that source, the first verse of text is underlaid between the staves, with additional fragments of this verse above andbelow the staves to indicate the word fit for the different parts. A further two verses of text are printed after the music.In this edition, the voice parts have been split out to open score, and all three verses of text have been underlaid in full." F,2 (E,D,) C,2 (D,E,) | %19
w: worlds un- * born his _|
w: dis- si- * pate the _|
w: sound in _ their me- *|
 (F,2 G,2 A,2 B,2 | C2 B,2) (A,2 G,2) | F,6 F,2 | (F,2 C,2 A,,2) C,2 | (F,E,F,G, A,G,)(A,B,) | %24
w: glo- * * *|* * ry _|sing, and|worlds _ _ un-|born _ _ _ _ _ his _|
w: gloom _ _ _|_ _ of _|night, to|dis- * * si-|pate _ _ _ _ _ the _|
w: lo- * * *|* * dious _|strains, re-|sound _ _ in|their _ _ _ _ _ me- *|
 C4 C,4 | F,8 |] %26
w: glo- ry|sing.|
w: gloom of|night.|
w: lo- dious|strains.|

